X:1
T:Title
%%score ( 1 2 ) { 3 | 4 }
L:1/8
Q:1/4=103
M:6/8
K:G
V:1 treble nm="Grand Piano, Soprano"
V:2 treble 
V:3 bass nm="Choir Pad, Fisher Island, CMD"
V:4 bass 
V:1
 D [DG]2 [DG] [DB]2 | [B,G]AB [Fc] [GB]2 | [DB] [EG]2 [EG] [FA]2 | [GB] [FA]2- [FA]2- [FA]/ z/ | %4
w: By~W.~H.~Burgett,~1880 * * *||||
 G [GB]2 [GB] [Gd]2 | [GB] [GB]2 [FA] [EG]2 | E [B,D]2 [B,D] [DB]2 | %7
w: |||
 [CA] [B,G]2- [B,G]2- [B,G]/ z/ | D [DA]2 [DA]AG | [DF] [DG]2 [FA] [GB]2 | [GB] [Gd]2 [Gd] [GB]2 | %11
w: ||||
 G [FA]2- [FA]2- [FA]/ z/ | D [DG]2 [GB] [Gd]2 | [GB] [GB]2 [FA] [EG]2 | E [B,D]2 [B,D] [DB]2 | %15
w: ||||
 [CA] [B,G]2- [B,G]3- | [B,G]3 z3 |] %17
w: ||
V:2
 x6 | z B,2 z3 | x6 | x6 | x6 | x6 | x6 | x6 | z3 z D2 | x6 | x6 | x6 | x6 | x6 | x6 | x6 | x6 |] %17
V:3
 G, B,2 B, G,2 | G,F,G, A, G,2 | G, B,2 B,[K:treble] D2 | D D2- D2- D/ z/ | B, D2 D B,2 | %5
 D D2 C[K:bass]B,G, | G, G,2 G, G,2 | F, G,2- G,2- G,/ z/ | B,[K:treble] C2 CCB, | %9
 A,[K:bass] B,2 G, G,2 | G, B,2 B,[K:treble] D2 | D D2- D2- D/ z/ | B, B,2 G, G,2 | D D2 CB,G, | %14
 G, G,2 G, G,2 | F, G,2- G,3- | G,3 z3 |] %17
V:4
 z G,2 .G,3 | z D,2 .D,3 | z E,2 E, D,2 | D, D,2- D,2- D,/ z/ | G, G,2 G, G,2 | G, G,2 D, E,2 | %6
 C, D,2 D, D,2 | D, G,,2- G,,2- G,,/ z/ | G, D,2 D, D,2 | D, G,2 z3 | z G,2 G, G,2 | %11
 B,, D,2- D,2- D,/ z/ | G, G,2 z3 | G, G,2 D, E,2 | C, D,2 D, D,2 | D, G,,2- G,,3- | G,,3 z3 |] %17

